Yaru++/actions/16/text_rotation.svg

<svg viewBox="0 0 24 24" xmlns="http://www.w3.org/2000/svg"><path d="m15.666016 7.8945312-1.332032 3.7714848-1.333984 3.771484.943359.333984.453125-1.283203a4 4 0 0 0 2.375 2.283203 4 4 0 0 0 5.103516-2.4375 4 4 0 0 0 -2.4375-5.1054684 4 4 0 0 0 -3.28125.2832032l.453125-1.2832032zm-9.666016.5527344a4 4 0 0 0 -4 4.0000004 4 4 0 0 0 4 4 4 4 0 0 0 3-1.361328v1.361328h1v-4-4.0000004h-1v1.3613282a4 4 0 0 0 -3-1.3613282zm0 1a3 3 0 0 1 3 3.0000004 3 3 0 0 1 -3 3 3 3 0 0 1 -3-3 3 3 0 0 1 3-3.0000004zm12.011719.5546874a3 3 0 0 1 1.09375.169922 3 3 0 0 1 1.828125 3.828125 3 3 0 0 1 -3.828125 1.828125 3 3 0 0 1 -1.830078-3.828125 3 3 0 0 1 2.736328-1.998047z" fill="#808080"/><path d="m11 4v16h1v-2.419922l9.359375 2.105469.232422-1.027344-9.591797-2.158203v-12.5z" fill="#1d99f3"/></svg>

<svg xmlns="http://www.w3.org/2000/svg" viewBox="0 0 24 24">
 <defs>
  <style id="current-color-scheme" type="text/css">
   .ColorScheme-Text { color:#808080; } .ColorScheme-Highlight { color:#1d99f3; }
  </style>
 </defs>
 <path style="fill:currentColor" class="ColorScheme-Text" d="M 15.666016 7.8945312 L 14.333984 11.666016 L 13 15.4375 L 13.943359 15.771484 L 14.396484 14.488281 A 4 4 0 0 0 16.771484 16.771484 A 4 4 0 0 0 21.875 14.333984 A 4 4 0 0 0 19.4375 9.2285156 A 4 4 0 0 0 16.15625 9.5117188 L 16.609375 8.2285156 L 15.666016 7.8945312 z M 6 8.4472656 A 4 4 0 0 0 2 12.447266 A 4 4 0 0 0 6 16.447266 A 4 4 0 0 0 9 15.085938 L 9 16.447266 L 10 16.447266 L 10 12.447266 L 10 8.4472656 L 9 8.4472656 L 9 9.8085938 A 4 4 0 0 0 6 8.4472656 z M 6 9.4472656 A 3 3 0 0 1 9 12.447266 A 3 3 0 0 1 6 15.447266 A 3 3 0 0 1 3 12.447266 A 3 3 0 0 1 6 9.4472656 z M 18.011719 10.001953 A 3 3 0 0 1 19.105469 10.171875 A 3 3 0 0 1 20.933594 14 A 3 3 0 0 1 17.105469 15.828125 A 3 3 0 0 1 15.275391 12 A 3 3 0 0 1 18.011719 10.001953 z"/>
 <path style="fill:currentColor" class="ColorScheme-Highlight" d="M 11 4 L 11 20 L 12 20 L 12 17.580078 L 21.359375 19.685547 L 21.591797 18.658203 L 12 16.5 L 12 4 L 11 4 z"/>
</svg>
